X:469
T:The fair maidens
T:The rival
R:Hornpipe
O:Ireland
B:Kerr's Second p39
B:O'Neills 1626
S:My arrangement from various sources
Z:Transcription, arrangement, chords:Mike Long
M:4/4
L:1/8
K:G
D2|\
"G"GDGB dGBd|gfed cBAG|"Am"ABcd "C"ecAG|"D"FGAF D2EF|\
"G"GDGB dGBd|
gfed cBAG|"C"ABcd "D"ecAF|"G"GB"D"AF "G"G2:|\
|:FG|\
"D"ADFD ADFD|"D"cD"G"BD "D"A2GA|
"G"BDGD BDGD|"G"dD"C"cD "G"B2D2|\
"G"GDGB dGBd|gfed cBAG|"C"ABcd "D"ecAF|"G"GB"D"AF "G"G2:|
